Newaita-dark/actions/16/flag-red.svg

<svg height="16" viewBox="0 0 16 16" width="16" xmlns="http://www.w3.org/2000/svg"><path d="m2.316406 4.09375c-.183594 0-.332031.148438-.332031.332031v4.628907c0 .183593.148437.332031.332031.332031h4.867188l-.226563.910156c-.054687.210937.105469.410156.320313.410156h6.945312c.304688 0 .445313-.375.21875-.578125l-2.363281-2.066406 2.363281-2.066406c.226563-.199219.085938-.578125-.21875-.578125h-5.199218l.226562-.914063c.054688-.207031-.105469-.410156-.320312-.410156zm0 0" fill="#f44336"/><g fill="#e0e0e0"><path d="m1.984375 2.441406h.660156c.183594 0 .332031.148438.332031.328125v11.578125c0 .183594-.148437.332032-.332031.332032h-.660156c-.183594 0-.332031-.148438-.332031-.332032v-11.578125c0-.179687.148437-.328125.332031-.328125zm0 0"/><path d="m2.316406 1.449219c.546875 0 .992188.441406.992188.992187 0 .546875-.445313.992188-.992188.992188-.550781 0-.992187-.445313-.992187-.992188 0-.550781.441406-.992187.992187-.992187zm0 0"/></g></svg>

<svg xmlns="http://www.w3.org/2000/svg" xmlns:xlink="http://www.w3.org/1999/xlink" width="16px" height="16px" viewBox="0 0 16 16" version="1.1">
<g id="surface1">
<path style=" stroke:none;fill-rule:nonzero;fill:rgb(95.686275%,26.274511%,21.176471%);fill-opacity:1;" d="M 2.316406 4.09375 C 2.132812 4.09375 1.984375 4.242188 1.984375 4.425781 L 1.984375 9.054688 C 1.984375 9.238281 2.132812 9.386719 2.316406 9.386719 L 7.183594 9.386719 L 6.957031 10.296875 C 6.902344 10.507812 7.0625 10.707031 7.277344 10.707031 L 14.222656 10.707031 C 14.527344 10.707031 14.667969 10.332031 14.441406 10.128906 L 12.078125 8.0625 L 14.441406 5.996094 C 14.667969 5.796875 14.527344 5.417969 14.222656 5.417969 L 9.023438 5.417969 L 9.25 4.503906 C 9.304688 4.296875 9.144531 4.09375 8.929688 4.09375 Z M 2.316406 4.09375 "/>
     <defs>
  <style id="current-color-scheme" type="text/css">
   .ColorScheme-Text { color:#eeeeee; } .ColorScheme-Highlight { color:#424242; }
  </style>
 </defs>
<path style="fill:currentColor" class="ColorScheme-Text" d="M 1.984375 2.441406 L 2.644531 2.441406 C 2.828125 2.441406 2.976562 2.589844 2.976562 2.769531 L 2.976562 14.347656 C 2.976562 14.53125 2.828125 14.679688 2.644531 14.679688 L 1.984375 14.679688 C 1.800781 14.679688 1.652344 14.53125 1.652344 14.347656 L 1.652344 2.769531 C 1.652344 2.589844 1.800781 2.441406 1.984375 2.441406 Z M 1.984375 2.441406 "/>
     <defs>
  <style id="current-color-scheme" type="text/css">
   .ColorScheme-Text { color:#eeeeee; } .ColorScheme-Highlight { color:#424242; }
  </style>
 </defs>
<path style="fill:currentColor" class="ColorScheme-Text" d="M 2.316406 1.449219 C 2.863281 1.449219 3.308594 1.890625 3.308594 2.441406 C 3.308594 2.988281 2.863281 3.433594 2.316406 3.433594 C 1.765625 3.433594 1.324219 2.988281 1.324219 2.441406 C 1.324219 1.890625 1.765625 1.449219 2.316406 1.449219 Z M 2.316406 1.449219 "/>
</g>
</svg>
